apps/tokenlist/data/42429/icons/0x20c0000000000000000000000000000000000000.svg

<svg width="64" height="64" viewBox="0 0 64 64" fill="none" xmlns="http://www.w3.org/2000/svg">
<path d="M0 32C0 14.3269 14.3269 0 32 0C49.6731 0 64 14.3269 64 32C64 49.6731 49.6731 64 32 64C14.3269 64 0 49.6731 0 32Z" fill="black"/>
<path d="M21 47V17.4255H25.0295V21.1702H25.1221C25.6316 20.305 26.2568 19.5674 26.9979 18.9574C27.7544 18.3333 28.6189 17.8511 29.5916 17.5106C30.5642 17.1702 31.6218 17 32.7642 17C34.8175 17 36.6084 17.4752 38.1368 18.4255C39.6807 19.3617 40.8772 20.695 41.7263 22.4255C42.5754 24.1418 43 26.1631 43 28.4894V28.5106C43 30.8369 42.5677 32.8582 41.7032 34.5745C40.854 36.2908 39.6653 37.6241 38.1368 38.5745C36.6239 39.5106 34.8561 39.9787 32.8337 39.9787C31.7067 39.9787 30.6491 39.8156 29.6611 39.4894C28.673 39.1489 27.793 38.6738 27.0211 38.0638C26.2646 37.4397 25.6316 36.7021 25.1221 35.8511H25.0295V47H21ZM31.9768 36.7021C33.3972 36.7021 34.6246 36.3688 35.6589 35.7021C36.6933 35.0355 37.4884 34.0922 38.0442 32.8723C38.6 31.6383 38.8779 30.1844 38.8779 28.5106V28.4894C38.8779 26.7872 38.6 25.3262 38.0442 24.1064C37.4884 22.8723 36.6933 21.9291 35.6589 21.2766C34.6246 20.6099 33.3972 20.2766 31.9768 20.2766C30.6182 20.2766 29.414 20.617 28.3642 21.2979C27.3144 21.9787 26.4884 22.9362 25.8863 24.1702C25.2996 25.3901 25.0063 26.8298 25.0063 28.4894V28.5106C25.0063 30.156 25.3074 31.5957 25.9095 32.8298C26.5116 34.0496 27.3298 35 28.3642 35.6809C29.414 36.3617 30.6182 36.7021 31.9768 36.7021Z" fill="white"/>
</svg>

<svg xmlns="http://www.w3.org/2000/svg" width="64" height="64" fill="none" viewBox="0 0 64 64"><path fill="#000" d="M0 32C0 14.327 14.327 0 32 0s32 14.327 32 32-14.327 32-32 32S0 49.673 0 32"/><path fill="#fff" d="M21 47V17.426h4.03v3.744h.092a8.3 8.3 0 0 1 1.876-2.213 8.4 8.4 0 0 1 2.594-1.446Q31.05 17 32.764 17q3.08 0 5.373 1.425 2.316 1.405 3.59 4Q43 25 43 28.49v.022q0 3.489-1.297 6.064-1.274 2.575-3.566 4-2.269 1.404-5.303 1.404-1.69 0-3.173-.49a8.9 8.9 0 0 1-2.64-1.425 8.5 8.5 0 0 1-1.899-2.213h-.093V47zm10.977-10.298q2.13 0 3.682-1t2.385-2.83q.834-1.851.834-4.361v-.022q0-2.553-.834-4.383-.833-1.85-2.385-2.83-1.551-1-3.682-1-2.038 0-3.613 1.022-1.575 1.02-2.478 2.872-.88 1.83-.88 4.32v.02q0 2.469.904 4.32.903 1.83 2.454 2.85 1.575 1.023 3.613 1.022"/></svg>
